lib/brands/icons/tableau.svg

<svg xmlns="http://www.w3.org/2000/svg" fill="none" aria-hidden="true" viewBox="0 0 48 48"><g id="tableau-Icon"><g id="Group"><path id="Vector" fill="#7099A6" d="M23.4913 9.77449V11.2296H20.8887V12.176H23.4913V15.0743H24.5086V12.176H27.1763V11.2296H24.5086V8.32532H23.4913V9.77449Z"/><path id="Vector_2" fill="#EB912C" d="M14.9862 13.4656V15.5772H11.0469V16.9022H14.9862V21.1905H16.4472V16.9022H20.4458V15.5772H16.4472V11.3539H14.9862V13.4656Z"/><path id="Vector_3" fill="#59879B" d="M31.4941 13.4656V15.5772H27.5547V16.9673H31.4941V21.1905H33.0142V16.9673H36.9536V15.5772H33.0142V11.3539H31.4941V13.4656Z"/><path id="Vector_4" fill="#E8762C" d="M23.1125 20.6579V23.0238H18.7295V24.7865H23.1125V29.5185H24.887V24.7865H29.27V23.0238H24.887V18.2919H23.1125V20.6579Z"/><path id="Vector_5" fill="#5B6591" d="M36.0016 21.8526V23.3373H33.334V24.538H36.0016V27.5014H37.3325V24.538H40.0002V23.3373H37.3325V20.3739H36.0016V21.8526Z"/><path id="Vector_6" fill="#7099A6" d="M10.6026 21.9832V23.4028H8V24.4083H10.6026V27.2475H11.62V24.4083L14.2876 24.3137V23.4028H11.62V20.5636H10.6026V21.9832Z"/><path id="Vector_7" fill="#C72035" d="M14.9862 28.667V30.7786H11.0469V32.1687H14.9862V36.392H16.5064V32.1687H20.4458V30.7786H16.5064V26.5554H14.9862V28.667Z"/><path id="Vector_8" fill="#1F447E" d="M31.4941 28.667V30.7786H27.5547V32.1036H31.4941V36.392H33.0142V32.1036H36.9536V30.7786H33.0142V26.5554H31.4941V28.667Z"/><path id="Vector_9" fill="#5B6591" d="M23.3669 34.0318V35.5105H20.6992V36.7113H23.3669V39.6747H24.6977V36.7113H27.3654V35.5105H24.6977V32.5471H23.3669V34.0318Z"/></g></g></svg>

<svg xmlns="http://www.w3.org/2000/svg" fill="none" aria-hidden="true" viewBox="0 0 48 48"><path fill="#7099A6" d="M23.491 9.774v1.456H20.89v.946h2.602v2.898h1.018v-2.898h2.668v-.946H24.51V8.325h-1.02v1.45Z"/><path fill="#EB912C" d="M14.986 13.466v2.111h-3.94v1.325h3.94v4.289h1.46v-4.289h4v-1.325h-4v-4.223h-1.46v2.112Z"/><path fill="#59879B" d="M31.494 13.466v2.111h-3.939v1.39h3.94v4.224h1.52v-4.224h3.94v-1.39h-3.94v-4.223h-1.52v2.112Z"/><path fill="#E8762C" d="M23.113 20.658v2.366H18.73v1.762h4.383v4.732h1.774v-4.732h4.383v-1.762h-4.383v-4.732h-1.774v2.366Z"/><path fill="#5B6591" d="M36.001 21.853v1.484h-2.667v1.201H36v2.963h1.331v-2.963H40v-1.2h-2.668v-2.964h-1.33v1.479Z"/><path fill="#7099A6" d="M10.603 21.983v1.42H8v1.005h2.603v2.84h1.017v-2.84l2.668-.094v-.911H11.62v-2.84h-1.017v1.42Z"/><path fill="#C72035" d="M14.986 28.667v2.112h-3.94v1.39h3.94v4.223h1.52v-4.223h3.94v-1.39h-3.94v-4.224h-1.52v2.112Z"/><path fill="#1F447E" d="M31.494 28.667v2.112h-3.939v1.324h3.94v4.289h1.52v-4.289h3.94V30.78h-3.94v-4.224h-1.52v2.112Z"/><path fill="#5B6591" d="M23.367 34.032v1.479H20.7v1.2h2.667v2.964h1.331V36.71h2.668v-1.2h-2.668v-2.964h-1.33v1.485Z"/></svg>
